static/images/homePricingBg.svg

<svg height="761" viewBox="0 0 1200 761" width="1200" xmlns="http://www.w3.org/2000/svg" xmlns:xlink="http://www.w3.org/1999/xlink"><linearGradient id="a" x1="-72.292969%" x2="35.692708%" y1="-18.816995%" y2="60.566089%"><stop offset="0" stop-color="#17ead9"/><stop offset="1" stop-color="#02afde"/></linearGradient><path d="m75.8920896 3.33864033 1054.9563404 342.12300367c41.22939 13.370718 69.15157 51.779677 69.15157 95.122944v274.240121l-1095.884247 45.142145c-55.1816778 2.273067-101.7579521-40.617836-104.03101997-95.799514-.0564827-1.371191-.08473303-2.7434-.08473303-4.115753v-131.965815-3.893982-465.6818425c0-32.0325155 25.9674845-58.00000003 58-58.00000003 6.0753707 0 12.1130182.95453638 17.8920896 2.82869286z" fill="url(#a)" fill-rule="evenodd"/></svg>

<?xml version="1.0" encoding="UTF-8"?>
<svg width="1200px" height="761px" viewBox="0 0 1200 761" version="1.1" xmlns="http://www.w3.org/2000/svg" xmlns:xlink="http://www.w3.org/1999/xlink">
    <!-- Generator: sketchtool 46.2 (44496) - http://www.bohemiancoding.com/sketch -->
    <title>D850B987-4A21-467F-B499-0D80A836D0C6</title>
    <desc>Created with sketchtool.</desc>
    <defs>
        <linearGradient x1="-36.0579296%" y1="-28.9565885%" x2="100%" y2="100%" id="linearGradient-1">
            <stop stop-color="#17EAD9" offset="0%"></stop>
            <stop stop-color="#3DAFE2" offset="51.761289%"></stop>
            <stop stop-color="#6078EA" offset="100%"></stop>
        </linearGradient>
        <linearGradient x1="-72.2929688%" y1="-18.8169946%" x2="35.6927083%" y2="60.566089%" id="linearGradient-2">
            <stop stop-color="#17EAD9" offset="0%"></stop>
            <stop stop-color="#02AFDE" offset="100%"></stop>
        </linearGradient>
        <path d="M75.8920896,3.33864033 L1130.84843,345.461644 L1130.84843,345.461644 C1172.07782,358.832362 1200,397.241321 1200,440.584588 L1200,714.824709 L104.115753,759.966854 L104.115753,759.966854 C48.9340752,762.239921 2.3578009,719.349018 0.0847330312,664.16734 C0.0282503281,662.796149 1.25505769e-14,661.42394 1.42108547e-14,660.051587 L0,528.085772 L0,524.19179 L0,58.5099475 L7.10542736e-15,58.5099475 C3.1825756e-15,26.477432 25.9674845,0.509947467 58,0.509947467 C64.0753707,0.509947467 70.1130182,1.46448385 75.8920896,3.33864033 Z" id="path-3"></path>
    </defs>
    <g id="Page-1" stroke="none" stroke-width="1" fill="none" fill-rule="evenodd">
        <g id="Home-Page--Testimonials2" transform="translate(0.000000, -3128.000000)">
            <g id="pricing" transform="translate(0.000000, 3076.000000)">
                <g id="BG" transform="translate(0.000000, 52.000000)">
                    <mask id="mask-4" fill="white">
                        <use xlink:href="#path-3"></use>
                    </mask>
                    <use id="Mask" fill="url(#linearGradient-2)" xlink:href="#path-3"></use>
                </g>
            </g>
        </g>
    </g>
</svg>
